svgs/sharp-regular/robot-astromech.svg

<svg xmlns="http://www.w3.org/2000/svg" viewBox="0 0 512 512"><!--! Font Awesome Pro 6.6.0 by @fontawesome - https://fontawesome.com License - https://fontawesome.com/license (Commercial License) Copyright 2024 Fonticons, Inc. --><path d="M256 0C185.3 0 128 57.3 128 128l0 16-72 0-24 0 0 24 0 242.3L2.5 469.3 0 474.3 0 480l0 8 0 24 24 0 112 0 24 0 0-24 0-72.9 22.1 24.8 7.2 8.1 10.8 0 112 0 10.8 0 7.2-8.1L352 415.1l0 72.9 0 24 24 0 112 0 24 0 0-24 0-8 0-5.7-2.5-5.1L480 410.3 480 168l0-24-24 0-72 0 0-16C384 57.3 326.7 0 256 0zM192 96a32 32 0 1 1 64 0 32 32 0 1 1 -64 0zm112 0a16 16 0 1 1 0 32 16 16 0 1 1 0-32zM160 342.9L160 192l192 0 0 150.9L301.2 400l-90.4 0L160 342.9zM112 192l0 160 0 112-53.2 0 18.6-37.3 2.5-5.1 0-5.7 0-224 32 0zm288 0l32 0 0 224 0 5.7 2.5 5.1L453.2 464 400 464l0-112 0-160zM208 224l-16 0 0 32 16 0 96 0 16 0 0-32-16 0-96 0zm0 64l-16 0 0 32 16 0 96 0 16 0 0-32-16 0-96 0z"/></svg>

<svg xmlns="http://www.w3.org/2000/svg" viewBox="0 0 512 512"><!--! Font Awesome Pro 6.4.0 by @fontawesome - https://fontawesome.com License - https://fontawesome.com/license (Commercial License) Copyright 2023 Fonticons, Inc. --><path d="M256 0C185.3 0 128 57.3 128 128v16H56 32v24V410.3L2.5 469.3 0 474.3V480v8 24H24 136h24V488 415.1l22.1 24.8 7.2 8.1H200 312h10.8l7.2-8.1L352 415.1V488v24h24H488h24V488v-8-5.7l-2.5-5.1L480 410.3V168 144H456 384V128C384 57.3 326.7 0 256 0zM192 96a32 32 0 1 1 64 0 32 32 0 1 1 -64 0zm112 0a16 16 0 1 1 0 32 16 16 0 1 1 0-32zM160 342.9V192H352V342.9L301.2 400H210.8L160 342.9zM112 192V352 464H58.8l18.6-37.3 2.5-5.1V416 192h32zm288 0h32V416v5.7l2.5 5.1L453.2 464H400V352 192zM208 224H192v32h16 96 16V224H304 208zm0 64H192v32h16 96 16V288H304 208z"/></svg>
